48x48/apps/appimagekit-sengi.svg

<svg xmlns="http://www.w3.org/2000/svg" width="48" height="48" version="1">
 <circle style="opacity:0.2" cx="24" cy="25" r="20"/>
 <circle style="fill:#17191e" cx="24" cy="24" r="20"/>
 <path style="opacity:0.1;fill:#f4f4f7" d="M 24,4 A 20,20 0 0 0 4,24 20,20 0 0 0 4.0214844,24.582031 20,20 0 0 1 24,5 20,20 0 0 1 43.978516,24.417969 20,20 0 0 0 44,24 20,20 0 0 0 24,4 Z"/>
 <path style="opacity:0.2" d="M 18.853516 10.808594 C 18.811956 10.818844 18.773206 10.842426 18.734375 10.878906 C 18.440169 11.155299 18.221619 12.019953 18.263672 12.748047 C 18.277142 12.981277 18.282541 13.171875 18.275391 13.171875 C 18.023129 13.171875 17.195313 13.460706 17.195312 13.548828 C 17.195312 13.574138 17.312527 13.721028 17.455078 13.875 C 17.73309 14.175285 17.883975 14.465411 17.974609 14.871094 C 18.073209 15.31242 18.018629 15.338651 17.794922 14.958984 C 16.815724 13.297111 14.987178 12.248796 13.585938 12.546875 C 13.403064 12.585775 13.19622 12.645925 13.126953 12.679688 C 13.002489 12.740348 13.001843 12.745418 13.015625 13.128906 C 13.062895 14.444144 13.652212 15.224759 14.957031 15.699219 C 15.530557 15.907765 15.537917 15.946744 14.996094 15.923828 C 14.471208 15.901628 13.930168 15.640883 13.455078 15.181641 L 13.265625 15 L 12.972656 15.052734 C 12.33088 15.170094 10.601752 15.113298 8.0332031 14.888672 C 7.2534938 14.820488 6.9586922 14.808052 6.8125 14.820312 A 20 20 0 0 0 4.0136719 24.355469 A 20 20 0 0 0 7.2363281 34.898438 C 7.5122626 34.940993 7.7871327 34.989872 8.0371094 35.015625 C 8.9221752 35.106805 10.525959 35.107555 11.328125 35.015625 C 12.980133 34.826219 14.288286 34.429056 16.0625 33.580078 C 16.435009 33.401828 16.767346 33.266467 16.800781 33.279297 C 16.875781 33.308077 17.182596 33.840671 17.400391 34.320312 C 17.61979 34.803489 17.861233 35.539144 18.029297 36.232422 C 18.105707 36.547598 18.178114 36.820934 18.189453 36.839844 C 18.230573 36.908424 18.385742 36.87066 18.433594 36.78125 C 18.526644 36.607376 18.337324 35.169067 17.990234 33.414062 L 17.78125 32.359375 L 17.929688 32.236328 C 18.011288 32.168198 18.169 32.064372 18.279297 32.005859 L 18.478516 31.900391 L 18.697266 32.013672 C 19.001506 32.171707 19.520332 32.705116 19.78125 33.126953 C 20.178465 33.769148 20.530646 34.758181 20.742188 35.826172 L 20.845703 36.345703 L 20.980469 36.332031 C 21.23123 36.305291 21.247992 36.252641 21.1875 35.673828 C 21.06949 34.544653 20.651468 33.136858 19.996094 31.654297 C 19.870364 31.369877 19.777389 31.111743 19.789062 31.082031 C 19.800742 31.052321 19.877592 30.984821 19.958984 30.931641 C 20.538962 30.552715 23.346966 27.823747 24.552734 26.466797 C 25.207653 25.729762 26.226045 24.51866 26.349609 24.330078 C 26.459242 24.162758 26.629424 24.101502 27.238281 24.011719 C 27.926422 23.910245 29.243271 23.942635 29.90625 24.078125 C 31.271105 24.357042 32.562707 24.864387 33.955078 25.667969 C 35.680205 26.663596 37.67645 28.291965 39.333984 30.054688 C 39.51773 30.250097 39.683169 30.410156 39.701172 30.410156 C 39.739932 30.410156 39.888672 29.956343 39.888672 29.837891 C 39.888672 29.738081 39.382104 28.836163 38.820312 27.933594 C 36.310589 23.901496 33.042419 20.248253 29.6875 17.724609 C 26.918061 15.641375 24.109009 14.268925 21.070312 13.515625 L 20.291016 13.322266 L 20.251953 13.097656 C 20.118698 12.323382 19.753754 11.515181 19.351562 11.101562 C 19.124596 10.868149 18.978193 10.777842 18.853516 10.808594 z M 20.164062 18 C 20.381145 18.0017 20.61383 18.03579 20.847656 18.107422 C 21.321259 18.252503 21.74194 18.566444 21.902344 18.892578 C 22.014131 19.11986 22.023113 19.17969 21.964844 19.371094 C 21.803748 19.900318 21.036608 20.13942 20.21875 19.916016 C 19.875695 19.822316 19.627945 19.693199 19.375 19.474609 C 19.107071 19.243067 19 19.033766 19 18.738281 C 19 18.284244 19.512822 17.995006 20.164062 18 z"/>
 <path style="fill:#80adf5" d="m 18.853516,9.8085938 c -0.04156,0.01025 -0.08031,0.033829 -0.119141,0.070312 -0.294206,0.2763932 -0.512756,1.1410472 -0.470703,1.8691412 0.01347,0.23323 0.01887,0.423828 0.01172,0.423828 -0.252262,0 -1.080079,0.288831 -1.080079,0.376953 0,0.02531 0.117215,0.1722 0.259766,0.326172 0.278012,0.300285 0.428897,0.590411 0.519531,0.996094 0.0986,0.441326 0.04402,0.467557 -0.179687,0.08789 -0.979198,-1.661873 -2.807744,-2.710188 -4.208984,-2.412109 -0.182874,0.0389 -0.389718,0.09905 -0.458985,0.132813 -0.124464,0.06066 -0.12511,0.06573 -0.111328,0.449218 0.04727,1.315238 0.636587,2.095853 1.941406,2.570313 0.573526,0.208546 0.580883,0.247525 0.03906,0.224609 -0.524886,-0.0222 -1.065926,-0.282945 -1.541016,-0.742187 L 13.265625,14 12.972656,14.052734 C 12.330878,14.170088 10.601752,14.113294 8.0332031,13.888672 7.2534938,13.820488 6.9586922,13.808051 6.8125,13.820312 A 20,20 0 0 0 4,24 20,20 0 0 0 6.5957031,33.804688 c 0.4417342,0.07469 0.9914483,0.164581 1.4414063,0.210937 0.8850658,0.09118 2.4888496,0.09193 3.2910156,0 1.652008,-0.189406 2.960161,-0.586569 4.734375,-1.435547 0.372509,-0.17825 0.704846,-0.313611 0.738281,-0.300781 0.075,0.02878 0.381815,0.561374 0.59961,1.041015 0.219399,0.483177 0.460842,1.218832 0.628906,1.91211 0.07641,0.315176 0.148817,0.588512 0.160156,0.607422 0.04112,0.06858 0.196289,0.03082 0.244141,-0.05859 0.09305,-0.173874 -0.09627,-1.612183 -0.44336,-3.367188 l -0.208984,-1.054687 0.148438,-0.123047 c 0.0816,-0.06813 0.239312,-0.171956 0.349609,-0.230469 l 0.199219,-0.105468 0.21875,0.113281 c 0.30424,0.158035 0.823066,0.691444 1.083984,1.113281 0.397215,0.642195 0.749396,1.631228 0.960938,2.699219 l 0.103515,0.519531 0.134766,-0.01367 c 0.250761,-0.02674 0.267523,-0.07939 0.207031,-0.658203 -0.11801,-1.129175 -0.536032,-2.53697 -1.191406,-4.019531 -0.12573,-0.28442 -0.218706,-0.542554 -0.207032,-0.572266 0.01168,-0.02971 0.08853,-0.09722 0.169922,-0.15039 0.579978,-0.378926 3.387982,-3.107894 4.59375,-4.464844 0.654919,-0.737035 1.673311,-1.948137 1.796875,-2.136719 0.109633,-0.16732 0.279815,-0.228576 0.888672,-0.318359 0.688141,-0.101474 2.00499,-0.06908 2.667969,0.06641 1.364855,0.278917 2.656457,0.786262 4.048828,1.589844 1.725127,0.995627 3.721372,2.623996 5.378906,4.386719 0.183746,0.195409 0.349185,0.355468 0.367188,0.355468 0.03876,0 0.1875,-0.453813 0.1875,-0.572265 0,-0.09981 -0.506568,-1.001728 -1.06836,-1.904297 C 36.310589,22.901506 33.042419,19.248253 29.6875,16.724609 26.918061,14.641375 24.109009,13.268925 21.070312,12.515625 l -0.779296,-0.193359 -0.03906,-0.22461 C 20.118698,11.323382 19.753753,10.51518 19.351562,10.101562 19.124596,9.8681477 18.978193,9.7778418 18.853516,9.8085938 Z M 20.164062,17 c 0.217082,0.0017 0.449768,0.03579 0.683594,0.107422 0.473603,0.145081 0.894284,0.459022 1.054688,0.785156 0.111787,0.227282 0.120769,0.287112 0.0625,0.478516 -0.161096,0.529224 -0.928236,0.768326 -1.746094,0.544922 C 19.875695,18.822316 19.627945,18.693199 19.375,18.474609 19.107071,18.243067 19,18.033766 19,17.738281 19,17.284244 19.512821,16.995006 20.164062,17 Z"/>
 <path style="opacity:0.2;fill:#f4f4f7" d="m 18.853516,9.8085938 c -0.04156,0.01025 -0.08031,0.033829 -0.119141,0.070312 -0.294206,0.2763932 -0.512756,1.1410472 -0.470703,1.8691412 0.01347,0.23323 0.01887,0.423828 0.01172,0.423828 -0.252262,0 -1.080079,0.288831 -1.080079,0.376953 0,0.02531 0.117215,0.1722 0.259766,0.326172 0.128343,0.138625 0.223951,0.277164 0.304688,0.423828 0.198322,-0.06249 0.413166,-0.126953 0.515625,-0.126953 0.0071,0 0.0018,-0.190598 -0.01172,-0.423828 -0.04205,-0.728094 0.176497,-1.592748 0.470703,-1.869141 0.03883,-0.03648 0.07758,-0.06006 0.119141,-0.07031 0.124677,-0.03075 0.27108,0.05956 0.498046,0.292968 0.402192,0.413619 0.767136,1.22182 0.900391,1.996094 l 0.03906,0.22461 0.779296,0.193359 c 3.038697,0.7533 5.847749,2.12575 8.617188,4.208984 3.354919,2.523644 6.623089,6.176887 9.132812,10.208985 0.356184,0.572241 0.635273,1.060273 0.832032,1.427734 0.0075,0.0055 0.0464,0.04883 0.04883,0.04883 0.03876,0 0.1875,-0.453813 0.1875,-0.572265 0,-0.09981 -0.506568,-1.001728 -1.06836,-1.904297 C 36.310589,22.901506 33.042419,19.248253 29.6875,16.724609 26.918061,14.641375 24.109009,13.268925 21.070312,12.515625 l -0.779296,-0.193359 -0.03906,-0.22461 C 20.118698,11.323382 19.753753,10.51518 19.351562,10.101562 19.124596,9.8681482 18.978193,9.7778417 18.853516,9.8085938 Z m -4.72461,1.6875002 c -0.186015,-0.0034 -0.367813,0.01352 -0.542968,0.05078 -0.182874,0.0389 -0.389718,0.09905 -0.458985,0.132813 -0.124464,0.06066 -0.12511,0.06573 -0.111328,0.449218 0.0076,0.211536 0.03394,0.405016 0.07031,0.589844 0.01545,-0.01048 0.01739,-0.02755 0.04101,-0.03906 0.06927,-0.03376 0.276111,-0.09391 0.458985,-0.132813 1.40124,-0.298079 3.229786,0.750236 4.208984,2.412109 0.223707,0.379667 0.278287,0.353436 0.179687,-0.08789 -0.09063,-0.405683 -0.241519,-0.695809 -0.519531,-0.996094 -0.142551,-0.153972 -0.259766,-0.300862 -0.259766,-0.326172 0,-0.0288 0.100691,-0.08019 0.228516,-0.134766 -0.879849,-1.149115 -2.163542,-1.897388 -3.294922,-1.917968 z M 6.8125,13.820312 A 20,20 0 0 0 4,24 20,20 0 0 0 4.015625,24.292969 20,20 0 0 1 6.8125,14.820312 c 0.1461922,-0.01226 0.4409938,1.76e-4 1.2207031,0.06836 2.5685489,0.224622 4.2976769,0.281422 4.9394529,0.164062 L 13.265625,15 l 0.189453,0.181641 c 0.47509,0.459242 1.01613,0.719987 1.541016,0.742187 0.541823,0.02292 0.534463,-0.01606 -0.03906,-0.224609 -0.977885,-0.35558 -1.553624,-0.884027 -1.800781,-1.679688 l -0.183594,0.0332 C 12.330878,14.170088 10.601752,14.113294 8.0332031,13.888672 7.2534938,13.820488 6.9586922,13.808052 6.8125,13.820312 Z m 12.416016,4.478516 C 19.094581,18.418124 19,18.561103 19,18.738281 c 0,0.295485 0.107071,0.504786 0.375,0.736328 0.252945,0.21859 0.500695,0.347707 0.84375,0.441407 0.817858,0.223404 1.584998,-0.0157 1.746094,-0.544922 0.05827,-0.191404 0.04929,-0.251234 -0.0625,-0.478516 -0.0343,-0.06974 -0.0865,-0.137987 -0.142578,-0.205078 -0.316403,0.296845 -0.912066,0.400318 -1.541016,0.228516 -0.343055,-0.0937 -0.590805,-0.222817 -0.84375,-0.441407 -0.06844,-0.05915 -0.09814,-0.11773 -0.146484,-0.175781 z m 0.841796,12.539063 c -0.02571,0.01896 -0.09095,0.08044 -0.111328,0.09375 -0.08139,0.05318 -0.158242,0.12068 -0.169922,0.15039 -0.01167,0.02971 0.0813,0.287846 0.207032,0.572266 0.586835,1.327516 0.969617,2.583259 1.130859,3.644531 0.107669,-0.05322 0.105916,-0.190889 0.06055,-0.625 -0.113063,-1.081838 -0.50846,-2.421877 -1.117188,-3.835937 z m -2.11914,1.382812 c -0.0058,0.0046 -0.01631,0.01131 -0.02148,0.01563 l -0.148438,0.123047 0.208984,1.054687 c 0.187806,0.949609 0.322753,1.784407 0.398438,2.398438 0.01418,-0.01238 0.03635,-0.01524 0.04492,-0.03125 0.09305,-0.173874 -0.09627,-1.612183 -0.44336,-3.367188 z"/>
</svg>

<svg xmlns="http://www.w3.org/2000/svg" width="48" height="48" version="1"><circle style="opacity:.2" cx="24" cy="25" r="20"/><circle style="fill:#17191e" cx="24" cy="24" r="20"/><path style="opacity:.1;fill:#f4f4f7" d="M24 4A20 20 0 0 0 4 24a20 20 0 0 0 .021.582A20 20 0 0 1 24 5a20 20 0 0 1 19.979 19.418A20 20 0 0 0 44 24 20 20 0 0 0 24 4z"/><path style="opacity:.2" d="M18.854 10.809a.27.27 0 0 0-.12.07c-.294.276-.512 1.141-.47 1.869.013.233.019.424.011.424-.252 0-1.08.289-1.08.377 0 .025.118.172.26.326.278.3.429.59.52.996.098.441.044.468-.18.088-.98-1.662-2.808-2.71-4.21-2.412-.182.039-.389.099-.458.133-.125.06-.125.065-.111.449.047 1.315.636 2.096 1.941 2.57.574.209.58.248.04.225-.526-.022-1.067-.283-1.542-.742l-.19-.182-.292.053c-.642.117-2.371.06-4.94-.164-.78-.069-1.074-.08-1.22-.069a20 20 0 0 0-2.8 9.535 20 20 0 0 0 3.223 10.543c.276.043.551.092.801.118.885.09 2.489.092 3.291 0 1.652-.19 2.96-.587 4.735-1.436.372-.178.704-.314.738-.3.075.028.382.56.6 1.04.219.483.46 1.22.628 1.912.077.316.15.589.16.608.042.068.197.03.245-.059.093-.174-.097-1.612-.444-3.367l-.209-1.055.149-.123c.081-.068.239-.172.35-.23l.199-.106.218.114c.305.158.823.691 1.084 1.113.397.642.75 1.631.961 2.7l.104.519.134-.014c.251-.027.268-.08.207-.658-.118-1.13-.536-2.537-1.19-4.02-.127-.284-.22-.542-.208-.572a.575.575 0 0 1 .17-.15c.58-.38 3.388-3.108 4.594-4.465.655-.737 1.673-1.948 1.797-2.137.11-.167.28-.228.888-.318.688-.102 2.005-.07 2.668.066 1.365.279 2.657.786 4.05 1.59 1.724.996 3.72 2.624 5.378 4.387.184.195.35.355.367.355.039 0 .188-.454.188-.572 0-.1-.507-1.002-1.069-1.904-2.51-4.033-5.778-7.686-9.133-10.21-2.769-2.083-5.578-3.455-8.617-4.208l-.779-.194-.039-.224c-.133-.775-.498-1.583-.9-1.996-.227-.234-.374-.324-.498-.293zM20.164 18c.217.002.45.036.684.107.473.146.894.46 1.054.786.112.227.121.287.063.478-.161.53-.928.768-1.746.545a2.01 2.01 0 0 1-.844-.441c-.268-.232-.375-.441-.375-.737 0-.454.513-.743 1.164-.738z"/><path style="fill:#80adf5" d="M18.854 9.809a.27.27 0 0 0-.12.07c-.294.276-.512 1.141-.47 1.869.013.233.019.424.011.424-.252 0-1.08.289-1.08.377 0 .025.118.172.26.326.278.3.429.59.52.996.098.441.044.468-.18.088-.98-1.662-2.808-2.71-4.21-2.412-.182.039-.389.099-.458.133-.125.06-.125.065-.111.449.047 1.315.636 2.096 1.941 2.57.574.209.58.248.04.225-.526-.022-1.067-.283-1.542-.742l-.19-.182-.292.053c-.642.117-2.371.06-4.94-.164-.78-.069-1.074-.08-1.22-.069A20 20 0 0 0 4 24a20 20 0 0 0 2.596 9.805c.441.074.991.164 1.441.21.885.092 2.489.093 3.291 0 1.652-.189 2.96-.586 4.735-1.435.372-.178.704-.314.738-.3.075.028.382.56.6 1.04.219.483.46 1.22.628 1.912.077.316.15.589.16.608.042.068.197.03.245-.059.093-.174-.097-1.612-.444-3.367l-.209-1.055.149-.123c.081-.068.239-.172.35-.23l.199-.106.218.114c.305.158.823.691 1.084 1.113.397.642.75 1.631.961 2.7l.104.519.134-.014c.251-.027.268-.08.207-.658-.118-1.13-.536-2.537-1.19-4.02-.127-.284-.22-.542-.208-.572a.575.575 0 0 1 .17-.15c.58-.38 3.388-3.108 4.594-4.465.655-.737 1.673-1.948 1.797-2.137.11-.167.28-.228.888-.318.688-.102 2.005-.07 2.668.066 1.365.28 2.657.786 4.05 1.59 1.724.996 3.72 2.624 5.378 4.387.184.195.35.355.367.355.039 0 .188-.454.188-.572 0-.1-.507-1.002-1.069-1.904-2.51-4.032-5.778-7.686-9.133-10.21-2.769-2.083-5.578-3.455-8.617-4.208l-.779-.194-.039-.224c-.133-.775-.498-1.583-.9-1.996-.227-.234-.374-.324-.498-.293zM20.164 17c.217.002.45.036.684.107.473.146.894.46 1.054.786.112.227.121.287.063.478-.161.53-.928.768-1.746.545a2.01 2.01 0 0 1-.844-.441c-.268-.232-.375-.441-.375-.737 0-.454.513-.743 1.164-.738z"/><path style="opacity:.2;fill:#f4f4f7" d="M18.854 9.809a.27.27 0 0 0-.12.07c-.294.276-.512 1.141-.47 1.869.013.233.019.424.011.424-.252 0-1.08.289-1.08.377 0 .025.118.172.26.326.128.139.224.277.305.424.198-.063.413-.127.515-.127.007 0 .002-.19-.011-.424-.042-.728.176-1.593.47-1.87a.27.27 0 0 1 .12-.07c.124-.03.27.06.498.294.402.413.767 1.221.9 1.996l.039.224.78.194c3.038.753 5.847 2.125 8.616 4.209 3.355 2.523 6.624 6.176 9.133 10.209.356.572.636 1.06.832 1.427.008.006.047.05.05.05.038 0 .187-.455.187-.573 0-.1-.507-1.002-1.069-1.904-2.51-4.032-5.778-7.686-9.133-10.21-2.769-2.083-5.578-3.455-8.617-4.208l-.779-.194-.039-.224c-.133-.775-.498-1.583-.9-1.996-.227-.234-.374-.324-.498-.293zm-4.725 1.687a2.776 2.776 0 0 0-1.002.184c-.125.06-.125.065-.111.449.007.211.034.405.07.59.015-.01.017-.028.04-.04.07-.033.277-.093.46-.132 1.401-.298 3.23.75 4.209 2.412.224.38.278.353.18-.088a1.998 1.998 0 0 0-.52-.996c-.142-.154-.26-.3-.26-.326 0-.029.101-.08.229-.135-.88-1.15-2.164-1.897-3.295-1.918zM6.813 13.82A20 20 0 0 0 4 24a20 20 0 0 0 .016.293 20 20 0 0 1 2.796-9.473c.147-.012.441 0 1.221.069 2.569.224 4.298.281 4.94.164l.293-.053.19.182c.474.459 1.015.72 1.54.742.542.023.535-.016-.039-.225-.978-.355-1.554-.884-1.8-1.68l-.184.034c-.642.117-2.371.06-4.94-.164-.78-.069-1.074-.08-1.22-.069zM19.229 18.3c-.134.12-.229.262-.229.44 0 .295.107.504.375.736.253.218.5.347.844.441.818.223 1.585-.016 1.746-.545.058-.191.05-.251-.063-.478a1.075 1.075 0 0 0-.142-.205c-.317.296-.912.4-1.541.228a2.01 2.01 0 0 1-.844-.441c-.068-.06-.098-.118-.146-.176zm.841 12.539c-.025.019-.09.08-.111.094a.575.575 0 0 0-.17.15c-.012.03.081.288.207.572.587 1.328.97 2.584 1.131 3.645.108-.053.106-.191.06-.625-.113-1.082-.508-2.422-1.117-3.836zm-2.119 1.383-.021.015-.149.123.21 1.055c.187.95.322 1.784.398 2.399.014-.013.036-.016.045-.032.093-.174-.097-1.612-.444-3.367z"/></svg>
